X: 14575
T: Gan Ainm
R: barndance
M: 4/4
K: Dmajor
|:e/|f2 f2 f>ed>B|A2 A2 A>FA>d|c2 c2 c>Aa>g|f2 f2 e>Ad>e|
f2 f2 f>ed>B|A2 A2 A>FA>d|c2 c2 c>Aa>c|d2 f2 d2- d3/2:|
|:B/|A2 A2 A>FG>A|B2 B2 B>GA>B|c2 c2 c>BA>c|B>A^G>A A>F=G>^G|
A2 A2 A>FG>A|B2 B2 B>GA>B|c2 c2 c>Aa>c|d2 f2 d2- d3/2:|

